X: 39
T: the INDIAN QUEEN
B: FIFTY OLD ENGLISH FOLK DANCE AIRS", Edgar H. Hunt ed., Schott & Co. Ltd. pub., London 1939
Z: 2004-2014 John Chambers <jc:trillian.mit.edu>
M: 2/2
L: 1/8
K: C
(ef) |\
g2e2 c2e2 | d4 G4 | (E2G2) G2e2 | d6 (ef) |\
g2e2 c2e2 | d4 G4 | (E2G2) G2e2 | c4 :|
|: (Bc) |\
(dcBA) G2d2 | e2B2 c2A2 | (ef)g2 a2^f2 | g6 (de) |\
(=fedc) B2g2 | A2f2 G2(ef) | d2c2 d2B2 | c6 :|

%%sep 1 1 500
%%sep 1 1 500
